website/static/img/illustrations/Versionamento.svg

<svg width="372" height="298" xmlns="http://www.w3.org/2000/svg">

 <g>
  <title>background</title>
  <rect fill="none" id="canvas_background" height="402" width="582" y="-1" x="-1"/>
 </g>
 <g>
  <title>Layer 1</title>
  <path id="svg_2" fill="#D2DFE6" d="m94.1206,107.954c0,0 1.2026,1.664 2.8671,3.811c8.0033,10.327 30.5193,24.174 91.4353,31.824c81.828,10.273 96.565,7.338 99.704,5.809c0.679,-0.34 2.072,-0.897 2.072,-0.897l0.177,-2.127l0.407,-15.347l-17.712,-38.0475l-93.711,-24.52l-44.95,0.7269l-29.072,20.5387c0,0 -7.9222,7.5822 -9.5596,10.7889c-0.8697,1.699 -1.6578,7.44 -1.6578,7.44z"/>
  <path id="svg_3" fill="#F5F8F9" d="m214.376,36.1057c21.796,5.1703 39.997,21.2113 47.824,39.5962c8.867,20.8443 5.836,43.9441 5.836,43.9441c0,0 24.113,4.118 22.183,28.855c0,0 8.275,-43.353 -12.725,-72.6972c-21.001,-29.3438 -63.559,-39.8 -63.118,-39.6981z"/>
  <path id="svg_4" fill="#2CC3D5" d="m212.963,36.0581c6.042,6.8612 10.099,15.2399 11.734,24.2346c2.048,12.1049 1.774,24.4891 -0.809,36.4913c0,0 43.829,-1.6714 44.114,22.862c0.048,0 11.87,-69.0892 -55.039,-83.5879z"/>
  <path id="svg_5" fill="#F5F8F9" d="m204.24,35.7656c-21.117,7.1542 -38.781,53.4834 -38.781,53.4834c0,0 30.899,-9.3012 58.429,7.5346c0,0 4.321,-16.0816 1.984,-32.9039c-1.678,-12.0324 -6.529,-25.1382 -12.977,-27.8219l-8.655,-0.2922z"/>
  <path id="svg_6" fill="#2CC3D5" d="m187.709,35.2153c0,0 -58.796,21.1909 -69.259,55.9768c0,0 11.842,-14.0706 46.988,-1.9431c0,0 17.665,-46.3291 38.788,-53.4833l-16.517,-0.5504z"/>
  <path id="svg_7" fill="#F5F8F9" d="m187.71,35.2153c0,0 -58.796,21.1909 -69.259,55.9768c0,0 -22.2104,-3.397 -24.3302,16.7609c0,0 6.5362,-65.7261 93.5892,-72.7377z"/>
  <path id="svg_8" fill="#8CA0B3" d="m165.459,89.2153c0.17,9.3012 0.217,18.6027 0.326,27.9037l0.115,27.903c0.055,9.301 0,18.603 0,27.897l-0.108,27.903l-1.977,-0.53l14.817,-25.987c4.987,-8.642 9.927,-17.305 14.948,-25.92l15.055,-25.858l7.61,-12.909l3.804,-6.441l3.839,-6.393l-3.546,6.583l-3.581,6.584l-7.181,13.126l-14.526,26.158c-4.838,8.703 -9.756,17.379 -14.648,26.075l-14.743,26.029l-2.039,3.56l0,-4.077l0.245,-27.896c0.109,-9.301 0.204,-18.603 0.374,-27.904l0.475,-27.896c0.279,-9.315 0.442,-18.6095 0.741,-27.9107z"/>
  <path id="svg_9" fill="#8CA0B3" d="m268.05,119.646c-8.252,7.247 -16.593,14.394 -25.023,21.442c-4.198,3.54 -8.438,7.025 -12.664,10.531l-12.766,10.443l-12.807,10.354c-4.294,3.397 -8.567,6.869 -12.909,10.259c-4.341,3.39 -8.628,6.794 -12.963,10.191c-4.335,3.397 -8.696,6.713 -13.106,9.994c4.077,-3.655 8.296,-7.201 12.44,-10.802c4.145,-3.601 8.371,-7.12 12.583,-10.64c4.212,-3.519 8.459,-7.059 12.671,-10.571l12.739,-10.436l12.814,-10.375c4.294,-3.397 8.567,-6.869 12.909,-10.259c8.587,-6.808 17.282,-13.518 26.082,-20.131z"/>
  <path id="svg_10" fill="#8CA0B3" d="m290.199,148.501c-10.037,4.91 -20.127,9.695 -30.268,14.356c-5.062,2.358 -10.191,4.64 -15.239,6.964l-15.28,6.848l-15.328,6.747c-5.122,2.215 -10.232,4.464 -15.375,6.638c-5.143,2.174 -10.279,4.362 -15.429,6.515c-5.15,2.154 -10.321,4.274 -15.518,6.319c5,-2.487 10.062,-4.844 15.09,-7.277c5.027,-2.432 10.109,-4.755 15.178,-7.079c5.068,-2.324 10.157,-4.64 15.232,-6.964l15.287,-6.849l15.328,-6.739c5.122,-2.215 10.238,-4.464 15.375,-6.638c10.268,-4.403 20.584,-8.683 30.947,-12.841z"/>
  <path id="svg_11" fill="#8CA0B3" d="m164.182,201.073c-6.169,-7.514 -12.23,-15.107 -18.181,-22.78c-2.997,-3.825 -5.932,-7.691 -8.901,-11.55l-8.832,-11.605l-8.683,-11.658c-2.874,-3.914 -5.775,-7.807 -8.615,-11.747c-2.84,-3.941 -5.693,-7.868 -8.513,-11.829c-2.8196,-3.961 -5.6187,-7.915 -8.3364,-11.951c3.1117,3.737 6.1144,7.548 9.1784,11.326c3.065,3.777 6.027,7.616 9.003,11.455c2.976,3.838 5.931,7.684 8.9,11.55l8.832,11.604l8.71,11.679c2.874,3.914 5.775,7.807 8.615,11.747c5.726,7.827 11.333,15.747 16.823,23.759z"/>
  <path id="svg_12" fill="#8CA0B3" d="m118.45,91.1924c4.326,9.0046 8.529,18.0636 12.61,27.1766c2.038,4.545 4.077,9.118 6.115,13.67l5.972,13.717l5.87,13.765c1.923,4.606 3.879,9.192 5.761,13.812c1.882,4.62 3.778,9.234 5.639,13.867c1.862,4.634 3.69,9.274 5.436,13.948c-2.195,-4.484 -4.267,-9.022 -6.4,-13.533c-2.134,-4.512 -4.185,-9.091 -6.224,-13.643c-2.038,-4.552 -4.076,-9.111 -6.114,-13.67l-5.972,-13.717l-5.85,-13.765c-1.923,-4.606 -3.873,-9.192 -5.755,-13.812c-3.823,-9.209 -7.519,-18.48 -11.088,-27.8156z"/>
  <path id="svg_13" fill="#EDB58D" d="m118.24,194.802l-12.909,53.674l86.965,2.717l12.908,-54.353l-86.964,-2.038z"/>
  <path id="svg_14" fill="#D99564" d="m153.698,267.5l-48.367,-19.024l86.965,2.718l28.535,16.306l-67.133,0z"/>
  <path id="svg_15" fill="#F3C29F" d="m232.381,215.185l-27.177,-18.344l-12.909,54.353l28.536,16.306l11.55,-52.315z"/>
  <path id="svg_16" fill="black" d="m113.382,214.988l86.883,2.649l27.917,16.558l-1.963,8.914l-28.665,-14.064l-86.822,-3.024l2.65,-11.033z" opacity="0.2"/>
  <path id="svg_17" stroke-linejoin="round" stroke-linecap="round" stroke-width="2.11931" stroke="white" fill="#2CC3D5" d="m152.637,230.587c-0.629,-0.183 -1.169,-0.347 -1.714,-0.495c-7.328,-1.928 -10.188,-6.987 -8.042,-14.241c2.383,-8.072 6.858,-10.609 15.415,-9.826c10.505,0.956 11.808,6.922 9.618,14.573c-0.867,3.037 -2.354,5.629 -4.841,7.561c-2.384,1.868 -4.861,3.667 -7.398,5.386c-0.798,0.535 -1.913,0.6 -2.879,0.877c-0.055,-0.931 -0.109,-1.863 -0.159,-2.794c-0.014,-0.243 0,-0.491 0,-1.041z"/>
  <path id="svg_18" fill="#87DDE8" d="m280.497,183.783c2.844,-0.233 13.478,-16.671 25.705,-16.671c10.259,0 15.236,7.485 15.947,12.378c0,0 5.08,-5.491 14.937,-3.095c7.965,1.937 9.596,7.378 10.16,10.482l0,0.331c0,0 5.248,-3.527 13.375,-3.064c7.659,0.432 10.266,4.666 11.379,6.658l-103.084,0c0,0 0.979,-6.152 11.581,-7.019z"/>
  <path id="svg_19" fill="#87DDE8" d="m0.01009,233.589l85.11821,0c0,0 -0.4162,-18.773 -29.203,-17.108c0,0 -10.0139,-12.626 -27.1156,-11.525c-17.1018,1.102 -29.20938,19.868 -28.79961,28.633z"/>
  <path id="svg_20" fill="#87DDE8" d="m12.1653,73.6317l71.0706,0c0,0 -3.238,-7.9616 -10.839,-7.7439c-7.601,0.2176 -11.525,2.7286 -16.0903,1.1985c-4.5654,-1.53 -12.7392,-8.0686 -24.9331,-5.7786c-12.1938,2.29 -19.2082,12.324 -19.2082,12.324z"/>
 </g>
</svg>

<svg width="372" height="298" viewBox="0 0 372 298" fill="none" xmlns="http://www.w3.org/2000/svg">
<path opacity="0.3" d="M111.771 101.324C110.777 126.8 102.323 148.028 61.9624 190.36C4.93312 250.144 84.6439 311.066 137.138 294.251C189.632 277.436 182.531 238.206 273.893 222.444C398.32 201.001 292.691 73.0545 243.757 30.1547C185.375 -21.003 116.311 -13.179 111.771 101.324Z" fill="#87DDE8"/>
<path d="M94.1206 107.954C94.1206 107.954 95.3232 109.618 96.9877 111.765C104.991 122.092 127.507 135.939 188.423 143.589C270.251 153.862 284.988 150.927 288.127 149.398C288.806 149.058 290.199 148.501 290.199 148.501L290.376 146.374L290.783 131.027L273.071 92.9795L179.36 68.4595L134.41 69.1864L105.338 89.7251C105.338 89.7251 97.4158 97.3073 95.7784 100.514C94.9087 102.213 94.1206 107.954 94.1206 107.954Z" fill="#D2DFE6"/>
<path d="M214.376 36.1057C236.172 41.276 254.373 57.317 262.2 75.7019C271.067 96.5462 268.036 119.646 268.036 119.646C268.036 119.646 292.149 123.764 290.219 148.501C290.219 148.501 298.494 105.148 277.494 75.8038C256.493 46.46 213.935 36.0038 214.376 36.1057Z" fill="#F5F8F9"/>
<path d="M212.963 36.0581C219.005 42.9193 223.062 51.298 224.697 60.2927C226.745 72.3976 226.471 84.7818 223.888 96.784C223.888 96.784 267.717 95.1126 268.002 119.646C268.05 119.646 279.872 50.5568 212.963 36.0581Z" fill="#2CC3D5"/>
<path d="M204.24 35.7656C183.123 42.9198 165.459 89.249 165.459 89.249C165.459 89.249 196.358 79.9478 223.888 96.7836C223.888 96.7836 228.209 80.702 225.872 63.8797C224.194 51.8473 219.343 38.7415 212.895 36.0578L204.24 35.7656Z" fill="#F5F8F9"/>
<path d="M187.709 35.2153C187.709 35.2153 128.913 56.4062 118.45 91.1921C118.45 91.1921 130.292 77.1215 165.438 89.249C165.438 89.249 183.103 42.9199 204.226 35.7657L187.709 35.2153Z" fill="#2CC3D5"/>
<path d="M187.71 35.2153C187.71 35.2153 128.914 56.4062 118.451 91.1921C118.451 91.1921 96.2406 87.7951 94.1208 107.953C94.1208 107.953 100.657 42.2269 187.71 35.2153Z" fill="#F5F8F9"/>
<path d="M165.459 89.2153C165.629 98.5165 165.676 107.818 165.785 117.119L165.9 145.022C165.955 154.323 165.9 163.625 165.9 172.919L165.792 200.822L163.815 200.292L178.632 174.305C183.619 165.663 188.559 157 193.58 148.385L208.635 122.527L216.245 109.618L220.049 103.177L223.888 96.784L220.342 103.367L216.761 109.951L209.58 123.077L195.054 149.235C190.216 157.938 185.298 166.614 180.406 175.31L165.663 201.339L163.624 204.899V200.822L163.869 172.926C163.978 163.625 164.073 154.323 164.243 145.022L164.718 117.126C164.997 107.811 165.16 98.5165 165.459 89.2153Z" fill="#8CA0B3"/>
<path d="M268.05 119.646C259.798 126.893 251.457 134.04 243.027 141.088C238.829 144.628 234.589 148.113 230.363 151.619L217.597 162.062L204.79 172.416C200.496 175.813 196.223 179.285 191.881 182.675C187.54 186.065 183.253 189.469 178.918 192.866C174.583 196.263 170.222 199.579 165.812 202.86C169.889 199.205 174.108 195.659 178.252 192.058C182.397 188.457 186.623 184.938 190.835 181.418C195.047 177.899 199.294 174.359 203.506 170.847L216.245 160.411L229.059 150.036C233.353 146.639 237.626 143.167 241.968 139.777C250.555 132.969 259.25 126.259 268.05 119.646Z" fill="#8CA0B3"/>
<path d="M290.199 148.501C280.162 153.411 270.072 158.196 259.931 162.857C254.869 165.215 249.74 167.497 244.692 169.821L229.412 176.669L214.084 183.416C208.962 185.631 203.852 187.88 198.709 190.054C193.566 192.228 188.43 194.416 183.28 196.569C178.13 198.723 172.959 200.843 167.762 202.888C172.762 200.401 177.824 198.044 182.852 195.611C187.879 193.179 192.961 190.856 198.03 188.532C203.098 186.208 208.187 183.892 213.262 181.568L228.549 174.719L243.877 167.98C248.999 165.765 254.115 163.516 259.252 161.342C269.52 156.939 279.836 152.659 290.199 148.501Z" fill="#8CA0B3"/>
<path d="M164.182 201.073C158.013 193.559 151.952 185.966 146.001 178.293C143.004 174.468 140.069 170.602 137.1 166.743L128.268 155.138L119.585 143.48C116.711 139.566 113.81 135.673 110.97 131.733C108.13 127.792 105.277 123.865 102.457 119.904C99.6374 115.943 96.8383 111.989 94.1206 107.953C97.2323 111.69 100.235 115.501 103.299 119.279C106.364 123.056 109.326 126.895 112.302 130.734C115.278 134.572 118.233 138.418 121.202 142.284L130.034 153.888L138.744 165.567C141.618 169.481 144.519 173.374 147.359 177.314C153.085 185.141 158.692 193.061 164.182 201.073Z" fill="#8CA0B3"/>
<path d="M118.45 91.1924C122.776 100.197 126.979 109.256 131.06 118.369C133.098 122.914 135.137 127.487 137.175 132.039L143.147 145.756L149.017 159.521C150.94 164.127 152.896 168.713 154.778 173.333C156.66 177.953 158.556 182.567 160.417 187.2C162.279 191.834 164.107 196.474 165.853 201.148C163.658 196.664 161.586 192.126 159.453 187.615C157.319 183.103 155.268 178.524 153.229 173.972C151.191 169.42 149.153 164.861 147.115 160.302L141.143 146.585L135.293 132.82C133.37 128.214 131.42 123.628 129.538 119.008C125.715 109.799 122.019 100.528 118.45 91.1924Z" fill="#8CA0B3"/>
<path d="M118.24 194.802L105.331 248.476L192.296 251.193L205.204 196.84L118.24 194.802Z" fill="#EDB58D"/>
<path d="M153.698 267.5L105.331 248.476L192.296 251.194L220.831 267.5H153.698Z" fill="#D99564"/>
<path d="M232.381 215.185L205.204 196.841L192.295 251.194L220.831 267.5L232.381 215.185Z" fill="#F3C29F"/>
<path opacity="0.2" d="M113.382 214.988L200.265 217.637L228.182 234.195L226.219 243.109L197.554 229.045L110.732 226.021L113.382 214.988Z" fill="black"/>
<path d="M152.637 230.587C152.008 230.404 151.468 230.24 150.923 230.092C143.595 228.164 140.735 223.105 142.881 215.851C145.264 207.779 149.739 205.242 158.296 206.025C168.801 206.981 170.104 212.947 167.914 220.598C167.047 223.635 165.56 226.227 163.073 228.159C160.689 230.027 158.212 231.826 155.675 233.545C154.877 234.08 153.762 234.145 152.796 234.422C152.741 233.491 152.687 232.559 152.637 231.628C152.623 231.385 152.637 231.137 152.637 230.587Z" fill="#2CC3D5" stroke="white" stroke-width="2.11931" stroke-linecap="round" stroke-linejoin="round"/>
<path d="M280.497 183.783C283.341 183.55 293.975 167.112 306.202 167.112C316.461 167.112 321.438 174.597 322.149 179.49C322.149 179.49 327.229 173.999 337.086 176.395C345.051 178.332 346.682 183.773 347.246 186.877V187.208C347.246 187.208 352.494 183.681 360.621 184.144C368.28 184.576 370.887 188.81 372 190.802H268.916C268.916 190.802 269.895 184.65 280.497 183.783Z" fill="#87DDE8"/>
<path d="M0.0100942 233.589H85.1283C85.1283 233.589 84.7121 214.816 55.9253 216.481C55.9253 216.481 45.9114 203.855 28.8097 204.956C11.7079 206.058 -0.399682 224.824 0.0100942 233.589Z" fill="#87DDE8"/>
<path d="M12.1653 73.6317H83.2359C83.2359 73.6317 79.9979 65.6701 72.3969 65.8878C64.7959 66.1054 60.8719 68.6164 56.3066 67.0863C51.7412 65.5563 43.5674 59.0177 31.3735 61.3077C19.1797 63.5977 12.1653 73.6317 12.1653 73.6317Z" fill="#87DDE8"/>
</svg>
